X:1
T:Stars of the Summer Night
T:Stars of the Summer Night - SATB
T:Longfellow/Woodbury
%%score [ 1 2 3 4 ]
L:1/8
Q:1/4=60
M:4/4
K:Eb
V:1 treble nm="Soprano"
V:2 treble nm="Alto"
V:3 treble-8 nm="Tenor"
V:4 bass nm="Bass"
V:1
 B4 =A2 B2 | E3 F G4 | A4 G2 E2 | G3 F F4 | E4 A2 c2 | B3 A G2 E2 | G2 z G B2 A2 | G8 | c8 | %9
w: 1.Stars of the|sum- mer night,|Far in yon|a- zure deeps,|Hide, hide your|gold- en light, She|sleeps, my la- dy|sleeps,|She|
w: 2.Moon of the|sum- mer night,|Far down yon|west- ern steems,|Sink, sink in|sil- ver light, She|sleeps, my la- dy|sleeps,|She|
w: 3.Dreams of the|sum- mer night,|Tell her, her|lov- er keeps|Watch while, in|slum- ber light, She|sleeps, my la- dy|sleeps,|She|
 B4 z2 E2 | G2 z G B2 A2 | G8 |] %12
w: sleeps, She|sleeps, my la- dy|sleeps.|
w: sleeps, She|sleeps, my la- dy|sleeps.|
w: sleeps, She|sleeps, my la- dy|sleeps.|
V:2
 G4 ^F2 G2 | E3 E E4 | E4 E2 E2 | E3 D D4 | C4 E2 A2 | G3 F E2 E2 | E2 z E G2 F2 | E8 | E8 | %9
w: 1.Stars of the|sum- mer night,|Far in yon|a- zure deeps,|Hide, hide your|gold- en light, She|sleeps, my la- dy|sleeps,|She|
w: 2.Moon of the|sum- mer night,|Far down yon|west- ern steems,|Sink, sink in|sil- ver light, She|sleeps, my la- dy|sleeps,|She|
w: 3.Dreams of the|sum- mer night,|Tell her, her|lov- er keeps|Watch while, in|slum- ber light, She|sleeps, my la- dy|sleeps,|She|
 E4 z2 E2 | E2 z E D2 D2 | E8 |] %12
w: sleeps, She|sleeps, my la- dy|sleeps.|
w: sleeps, She|sleeps, my la- dy|sleeps.|
w: sleeps, She|sleeps, my la- dy|sleeps.|
V:3
 B4 c2 B2 | G3 A B4 | c4 B2 B2 | B3 B B4 | G4 A2 c2 | e3 B B2 B2 | B2 z B B2 B2 | B8 | A8 | %9
w: 1.Stars of the|sum- mer night,|Far in yon|a- zure deeps,|Hide, hide your|gold- en light, She|sleeps, my la- dy|sleeps,|She|
w: 2.Moon of the|sum- mer night,|Far down yon|west- ern steems,|Sink, sink in|sil- ver light, She|sleeps, my la- dy|sleeps,|She|
w: 3.Dreams of the|sum- mer night,|Tell her, her|lov- er keeps|Watch while, in|slum- ber light, She|sleeps, my la- dy|sleeps,|She|
 G4 z2 G2 | B2 z B B2 B2 | B8 |] %12
w: sleeps, She|sleeps, my la- dy|sleeps.|
w: sleeps, She|sleeps, my la- dy|sleeps.|
w: sleeps, She|sleeps, my la- dy|sleeps.|
V:4
 E,4 E,2 E,2 | E,3 E, E,4 | A,,4 E,2 G,,2 | B,,3 B,, B,,4 | C,4 C,2 A,,2 | E,3 E, E,2 G,2 | %6
w: 1.Stars of the|sum- mer night,|Far in yon|a- zure deeps,|Hide, hide your|gold- en light, She|
w: 2.Moon of the|sum- mer night,|Far down yon|west- ern steems,|Sink, sink in|sil- ver light, She|
w: 3.Dreams of the|sum- mer night,|Tell her, her|lov- er keeps|Watch while, in|slum- ber light, She|
 B,2 z B, B,,2 B,,2 | E,8 | A,,8 | B,,4 z2 B,,2 | B,,2 z E, F,2 B,,2 | E,8 |] %12
w: sleeps, my la- dy|sleeps,|She|sleeps, She|sleeps, my la- dy|sleeps.|
w: sleeps, my la- dy|sleeps,|She|sleeps, She|sleeps, my la- dy|sleeps.|
w: sleeps, my la- dy|sleeps,|She|sleeps, She|sleeps, my la- dy|sleeps.|

